resources/svg/border-all.svg

<svg xmlns="http://www.w3.org/2000/svg" viewBox="0 0 15 15" fill="currentColor"><path fill-rule="evenodd" clip-rule="evenodd" d="M1 1h13v13H1V1zm1 1v5h5V2H2zm6 0v5h5V2H8zm5 6H8v5h5V8zm-6 5V8H2v5h5z" fill="currentColor"/></svg>

<svg xmlns="http://www.w3.org/2000/svg" viewBox="0 0 15 15" fill="currentColor"><path fill-rule="evenodd" clip-rule="evenodd" d="M1 1H14V14H1V1ZM2 2V7H7V2H2ZM8 2V7H13V2H8ZM13 8H8V13H13V8ZM7 13V8H2V13H7Z" fill="black"/></svg>
